<?xml version="1.0" encoding="UTF-8"?>
<map version="1.10" tiledversion="1.11.0" orientation="orthogonal" renderorder="right-down" width="36" height="23" tilewidth="32" tileheight="32" infinite="0" nextlayerid="47" nextobjectid="46">
 <tileset firstgid="1" source="Terrain - Ancient Ruins.tsx"/>
 <tileset firstgid="2092" source="Ancient Ruins-Tileset-wall-8.tsx"/>
 <tileset firstgid="2162" source="Tileset-Animated Terrains-8 frames--.tsx"/>
 <tileset firstgid="2423" name="Atlas-Props" tilewidth="32" tileheight="32" tilecount="208" columns="16">
  <image source="Atlas-Props.png" width="512" height="416"/>
  <tile id="56">
   <properties>
    <property name="blocked" value=""/>
   </properties>
  </tile>
  <tile id="57">
   <properties>
    <property name="blocked" value=""/>
   </properties>
  </tile>
  <tile id="58">
   <properties>
    <property name="blocked" value=""/>
   </properties>
  </tile>
  <tile id="59">
   <properties>
    <property name="blocked" value=""/>
   </properties>
  </tile>
  <tile id="60">
   <properties>
    <property name="blocked" value=""/>
   </properties>
  </tile>
  <tile id="61">
   <properties>
    <property name="blocked" value=""/>
   </properties>
  </tile>
  <tile id="65">
   <properties>
    <property name="blocked" value=""/>
   </properties>
  </tile>
  <tile id="66">
   <properties>
    <property name="blocked" value=""/>
   </properties>
  </tile>
  <tile id="67">
   <properties>
    <property name="blocked" value=""/>
   </properties>
  </tile>
  <tile id="68">
   <properties>
    <property name="blocked" value=""/>
   </properties>
  </tile>
  <tile id="69">
   <properties>
    <property name="blocked" value=""/>
   </properties>
  </tile>
  <tile id="72">
   <properties>
    <property name="blocked" value=""/>
   </properties>
  </tile>
  <tile id="73">
   <properties>
    <property name="blocked" value=""/>
   </properties>
  </tile>
  <tile id="74">
   <properties>
    <property name="blocked" value=""/>
   </properties>
  </tile>
  <tile id="75">
   <properties>
    <property name="blocked" value=""/>
   </properties>
  </tile>
  <tile id="76">
   <properties>
    <property name="blocked" value=""/>
   </properties>
  </tile>
  <tile id="77">
   <properties>
    <property name="blocked" value=""/>
   </properties>
  </tile>
  <tile id="88">
   <properties>
    <property name="blocked" value=""/>
   </properties>
  </tile>
  <tile id="89">
   <properties>
    <property name="blocked" value=""/>
   </properties>
  </tile>
  <tile id="90">
   <properties>
    <property name="blocked" value=""/>
   </properties>
  </tile>
  <tile id="91">
   <properties>
    <property name="blocked" value=""/>
   </properties>
  </tile>
  <tile id="92">
   <properties>
    <property name="blocked" value=""/>
   </properties>
  </tile>
  <tile id="93">
   <properties>
    <property name="blocked" value=""/>
   </properties>
  </tile>
  <tile id="102">
   <properties>
    <property name="blocked" value=""/>
   </properties>
  </tile>
  <tile id="103">
   <properties>
    <property name="blocked" value=""/>
   </properties>
  </tile>
  <tile id="104">
   <properties>
    <property name="blocked" value=""/>
   </properties>
  </tile>
  <tile id="105">
   <properties>
    <property name="blocked" value=""/>
   </properties>
  </tile>
  <tile id="106">
   <properties>
    <property name="blocked" value=""/>
   </properties>
  </tile>
  <tile id="107">
   <properties>
    <property name="blocked" value=""/>
   </properties>
  </tile>
  <tile id="108">
   <properties>
    <property name="blocked" value=""/>
   </properties>
  </tile>
  <tile id="109">
   <properties>
    <property name="blocked" value=""/>
   </properties>
  </tile>
  <tile id="110">
   <properties>
    <property name="blocked" value=""/>
   </properties>
  </tile>
  <tile id="111">
   <properties>
    <property name="blocked" value=""/>
   </properties>
  </tile>
  <tile id="118">
   <properties>
    <property name="blocked" value=""/>
   </properties>
  </tile>
  <tile id="119">
   <properties>
    <property name="blocked" value=""/>
   </properties>
  </tile>
  <tile id="120">
   <properties>
    <property name="blocked" value=""/>
   </properties>
  </tile>
  <tile id="121">
   <properties>
    <property name="blocked" value=""/>
   </properties>
  </tile>
  <tile id="122">
   <properties>
    <property name="blocked" value=""/>
   </properties>
  </tile>
  <tile id="123">
   <properties>
    <property name="blocked" value=""/>
   </properties>
  </tile>
  <tile id="124">
   <properties>
    <property name="blocked" value=""/>
   </properties>
  </tile>
  <tile id="125">
   <properties>
    <property name="blocked" value=""/>
   </properties>
  </tile>
  <tile id="126">
   <properties>
    <property name="blocked" value=""/>
   </properties>
  </tile>
  <tile id="127">
   <properties>
    <property name="blocked" value=""/>
   </properties>
  </tile>
  <tile id="134">
   <properties>
    <property name="blocked" value=""/>
   </properties>
  </tile>
  <tile id="135">
   <properties>
    <property name="blocked" value=""/>
   </properties>
  </tile>
  <tile id="136">
   <properties>
    <property name="blocked" value=""/>
   </properties>
  </tile>
  <tile id="137">
   <properties>
    <property name="blocked" value=""/>
   </properties>
  </tile>
  <tile id="138">
   <properties>
    <property name="blocked" value=""/>
   </properties>
  </tile>
  <tile id="139">
   <properties>
    <property name="blocked" value=""/>
   </properties>
  </tile>
  <tile id="140">
   <properties>
    <property name="blocked" value=""/>
   </properties>
  </tile>
  <tile id="141">
   <properties>
    <property name="blocked" value=""/>
   </properties>
  </tile>
  <tile id="142">
   <properties>
    <property name="blocked" value=""/>
   </properties>
  </tile>
  <tile id="143">
   <properties>
    <property name="blocked" value=""/>
   </properties>
  </tile>
  <tile id="146">
   <properties>
    <property name="blocked" value=""/>
   </properties>
  </tile>
  <tile id="147">
   <properties>
    <property name="blocked" value=""/>
   </properties>
  </tile>
  <tile id="148">
   <properties>
    <property name="blocked" value=""/>
   </properties>
  </tile>
  <tile id="149">
   <properties>
    <property name="blocked" value=""/>
   </properties>
  </tile>
  <tile id="150">
   <properties>
    <property name="blocked" value=""/>
   </properties>
  </tile>
  <tile id="155">
   <properties>
    <property name="blocked" value=""/>
   </properties>
  </tile>
  <tile id="156">
   <properties>
    <property name="blocked" value=""/>
   </properties>
  </tile>
  <tile id="157">
   <properties>
    <property name="blocked" value=""/>
   </properties>
  </tile>
  <tile id="158">
   <properties>
    <property name="blocked" value=""/>
   </properties>
  </tile>
  <tile id="159">
   <properties>
    <property name="blocked" value=""/>
   </properties>
  </tile>
  <tile id="162">
   <properties>
    <property name="blocked" value=""/>
   </properties>
  </tile>
  <tile id="163">
   <properties>
    <property name="blocked" value=""/>
   </properties>
  </tile>
  <tile id="164">
   <properties>
    <property name="blocked" value=""/>
   </properties>
  </tile>
  <tile id="165">
   <properties>
    <property name="blocked" value=""/>
   </properties>
  </tile>
  <tile id="166">
   <properties>
    <property name="blocked" value=""/>
   </properties>
  </tile>
  <tile id="171">
   <properties>
    <property name="blocked" value=""/>
   </properties>
  </tile>
  <tile id="172">
   <properties>
    <property name="blocked" value=""/>
   </properties>
  </tile>
  <tile id="173">
   <properties>
    <property name="blocked" value=""/>
   </properties>
  </tile>
  <tile id="174">
   <properties>
    <property name="blocked" value=""/>
   </properties>
  </tile>
  <tile id="175">
   <properties>
    <property name="blocked" value=""/>
   </properties>
  </tile>
  <tile id="178">
   <properties>
    <property name="blocked" value=""/>
   </properties>
  </tile>
  <tile id="179">
   <properties>
    <property name="blocked" value=""/>
   </properties>
  </tile>
  <tile id="180">
   <properties>
    <property name="blocked" value=""/>
   </properties>
  </tile>
  <tile id="181">
   <properties>
    <property name="blocked" value=""/>
   </properties>
  </tile>
  <tile id="182">
   <properties>
    <property name="blocked" value=""/>
   </properties>
  </tile>
  <tile id="187">
   <properties>
    <property name="blocked" value=""/>
   </properties>
  </tile>
  <tile id="188">
   <properties>
    <property name="blocked" value=""/>
   </properties>
  </tile>
  <tile id="189">
   <properties>
    <property name="blocked" value=""/>
   </properties>
  </tile>
  <tile id="190">
   <properties>
    <property name="blocked" value=""/>
   </properties>
  </tile>
  <tile id="191">
   <properties>
    <property name="blocked" value=""/>
   </properties>
  </tile>
  <tile id="194">
   <properties>
    <property name="blocked" value=""/>
   </properties>
  </tile>
  <tile id="195">
   <properties>
    <property name="blocked" value=""/>
   </properties>
  </tile>
  <tile id="196">
   <properties>
    <property name="blocked" value=""/>
   </properties>
  </tile>
  <tile id="197">
   <properties>
    <property name="blocked" value=""/>
   </properties>
  </tile>
  <tile id="198">
   <properties>
    <property name="blocked" value=""/>
   </properties>
  </tile>
 </tileset>
 <tileset firstgid="2631" name="altar 224x288 - standing on grass" tilewidth="32" tileheight="32" tilecount="2457" columns="273">
  <image source="altar 224x288 - standing on grass.png" width="8736" height="288"/>
 </tileset>
 <layer id="44" name="terrainMinus1" width="36" height="23">
  <data encoding="csv">
0,0,0,0,0,0,0,0,0,0,0,0,0,0,0,0,0,0,0,0,0,0,0,0,0,0,0,0,0,0,0,0,0,0,0,0,
0,0,0,0,0,0,0,0,0,0,0,0,0,0,0,0,0,0,0,0,0,0,0,0,0,0,0,0,0,0,0,0,0,0,0,0,
0,0,0,0,0,0,0,0,0,0,0,0,0,0,0,0,0,0,0,0,0,0,0,0,0,0,0,0,0,0,0,0,0,0,0,0,
0,0,0,0,0,0,0,0,0,0,0,0,0,0,0,0,0,0,0,0,0,0,0,0,0,0,0,0,0,0,0,0,0,0,0,0,
0,0,0,0,0,0,0,0,0,0,0,0,0,0,0,0,0,0,0,0,0,0,0,0,0,0,0,0,0,0,0,0,0,0,0,0,
0,0,0,0,0,0,0,0,0,0,0,0,0,0,0,0,0,0,0,0,0,0,0,0,0,0,0,0,0,0,0,0,0,0,0,0,
0,0,0,0,0,0,0,0,0,0,0,0,0,0,0,0,0,0,0,0,0,0,0,0,0,0,0,0,0,0,0,0,0,0,0,0,
0,0,0,0,0,0,0,0,0,0,0,0,0,0,0,0,0,0,0,0,0,0,0,0,0,0,0,0,0,0,0,0,0,0,0,0,
0,0,0,0,0,0,0,0,0,0,0,0,0,0,0,0,0,0,0,0,0,0,0,0,0,0,0,0,0,0,0,0,0,0,0,0,
0,0,0,0,0,0,0,0,0,0,0,0,0,0,0,0,0,0,0,0,0,0,0,0,0,0,0,0,0,0,0,0,0,0,0,0,
0,0,0,0,0,0,0,0,0,0,0,0,0,0,0,0,0,0,0,0,0,0,0,0,0,0,0,0,0,0,0,0,0,0,0,0,
0,0,0,0,0,0,0,0,0,0,0,0,0,0,0,0,0,0,0,0,0,0,0,0,0,0,0,0,0,0,0,0,0,0,0,0,
0,0,0,0,0,0,0,0,0,0,0,0,0,0,0,0,0,0,0,0,0,0,0,0,0,0,0,0,0,0,0,0,0,0,0,0,
0,0,0,0,0,0,0,0,0,0,0,0,0,0,0,0,0,0,0,0,0,0,0,0,0,0,0,0,0,0,0,0,0,0,0,0,
0,0,0,0,0,0,0,0,0,0,0,0,0,0,0,0,0,0,0,0,0,0,0,0,0,0,0,0,0,0,0,0,0,0,0,0,
0,0,0,0,0,0,0,0,0,0,0,0,0,0,0,0,0,0,0,0,0,0,0,0,0,0,0,0,0,0,0,0,0,0,0,0,
0,0,0,0,0,0,0,0,0,0,0,0,0,0,0,0,0,0,0,0,2367,2367,2337,0,0,0,0,0,0,0,0,0,0,0,0,0,
0,0,0,0,0,0,0,0,0,0,0,0,0,0,0,0,0,0,0,0,2191,2191,2366,2337,0,0,0,0,0,0,0,0,0,0,0,0,
0,0,0,0,0,0,0,0,0,0,0,0,0,0,0,0,0,0,0,0,0,2191,2191,2336,0,0,0,0,274,274,0,0,0,0,390,0,
0,0,0,0,0,0,0,0,0,0,0,0,0,0,0,0,0,0,0,0,0,0,0,0,0,0,0,203,203,0,273,0,0,0,57,271,
0,0,0,0,0,0,0,0,0,0,0,0,0,0,0,0,0,0,0,0,0,2191,2191,2191,0,0,0,0,275,0,200,200,271,271,274,0,
0,0,0,0,0,0,0,0,0,0,0,0,0,0,0,0,0,0,0,0,0,2191,2191,2278,2279,0,0,0,129,129,0,0,0,0,271,273,
0,0,0,0,0,0,0,0,0,0,0,0,0,0,0,0,0,0,0,0,0,2250,2251,2279,0,0,0,0,0,129,129,0,0,273,273,273
</data>
 </layer>
 <layer id="8" name="terrain0" width="36" height="23">
  <data encoding="csv">
18,18,18,18,18,18,18,18,18,18,18,18,18,18,18,18,18,18,18,18,236,18,18,94,0,0,0,0,0,0,0,0,0,18,18,18,
18,18,18,18,18,18,18,18,18,18,18,18,18,18,18,18,18,18,18,18,0,0,0,0,0,0,0,0,0,0,0,0,0,18,18,18,
18,18,18,18,18,18,18,18,18,18,18,18,18,18,18,18,18,18,18,18,0,0,0,0,0,0,0,0,0,0,0,0,0,0,0,0,
18,18,18,18,18,18,18,18,18,18,18,18,18,18,18,18,18,18,18,18,0,0,0,0,0,0,0,0,0,0,0,0,0,0,0,0,
18,18,18,18,18,18,18,18,18,18,18,18,18,18,18,18,18,18,18,18,0,0,0,0,0,0,0,0,0,0,0,0,18,18,18,18,
18,18,18,18,18,18,18,18,18,18,18,18,18,18,18,18,18,18,18,18,93,93,93,18,93,18,18,93,0,0,0,0,18,18,18,18,
18,18,18,18,18,18,18,18,18,18,18,18,18,18,18,18,18,18,18,18,57,57,93,18,18,18,18,18,0,0,0,0,18,18,18,18,
273,271,237,18,18,18,18,18,18,18,18,18,18,18,18,18,18,18,18,18,18,57,93,93,57,18,18,18,93,93,93,0,18,0,0,0,
18,18,18,18,0,18,18,18,18,18,18,18,18,18,18,18,18,18,18,18,18,18,18,18,57,57,18,18,18,0,18,18,18,18,0,18,
18,18,18,18,18,18,18,18,18,18,18,18,18,18,18,18,18,18,18,18,18,18,18,93,0,57,57,94,94,18,129,0,0,18,18,18,
18,18,18,18,18,18,18,18,18,18,18,18,18,18,18,18,18,18,18,18,18,18,93,93,93,93,0,94,18,0,0,0,0,18,18,18,
18,18,18,18,18,18,18,18,18,18,18,18,18,18,18,18,18,18,18,18,18,18,18,18,18,18,18,18,18,0,0,0,0,0,0,0,
18,18,18,18,18,18,18,18,18,18,18,18,18,18,18,18,18,18,18,18,18,18,18,18,18,18,18,18,18,0,0,0,0,0,0,0,
18,18,18,18,18,18,18,18,18,18,18,18,18,18,18,18,18,18,18,18,0,18,18,18,18,18,18,18,18,0,237,0,0,237,237,0,
18,18,18,18,18,18,18,18,18,18,18,18,18,18,18,18,18,18,18,18,18,18,18,18,18,18,18,18,18,237,237,0,0,0,237,237,
18,2569,2570,2571,2572,2573,18,18,18,18,18,18,18,18,18,18,18,18,18,18,18,18,18,18,18,0,0,0,0,237,0,0,0,0,0,237,
2569,2570,2571,2572,2573,2589,18,18,18,18,18,18,18,18,18,18,18,18,18,18,0,0,0,0,0,0,0,0,0,237,0,0,0,0,237,237,
271,2586,2587,2588,2589,2605,18,18,18,18,18,18,18,18,18,18,18,18,0,18,0,0,0,0,0,0,0,18,0,237,237,0,237,237,237,273,
2601,271,2603,2604,2605,2621,18,18,18,18,18,18,18,18,18,18,18,18,18,18,0,0,0,0,0,18,18,18,343,344,237,237,237,237,237,271,
2617,2618,2619,2620,2621,18,18,18,18,18,18,18,18,18,18,18,18,18,18,18,0,93,0,0,0,18,18,0,379,380,0,237,237,237,0,0,
18,18,18,18,18,18,18,18,18,0,0,0,0,0,0,0,0,0,0,0,0,0,0,0,0,18,18,92,415,273,273,308,309,310,311,271,
18,18,18,18,18,18,18,18,18,18,236,0,0,0,0,0,0,0,0,0,0,0,0,0,0,18,18,18,0,0,273,273,273,273,0,0,
18,18,18,18,18,18,18,18,18,18,18,236,18,57,0,0,0,0,0,0,0,0,0,0,18,18,18,18,0,0,0,273,273,0,0,0
</data>
 </layer>
 <layer id="33" name="terrain1" width="36" height="23">
  <data encoding="csv">
21,21,22,0,91,95,127,23,21,19,131,0,91,95,0,203,56,95,95,91,0,21,21,0,0,0,0,0,0,236,237,238,93,0,0,237,
165,128,58,59,91,58,21,19,165,23,59,0,91,95,0,237,203,95,0,91,0,0,0,0,0,0,0,0,0,0,271,93,93,0,0,237,
0,91,130,23,56,273,130,23,59,91,58,21,56,58,21,21,19,131,0,91,0,0,0,0,0,0,0,0,0,0,0,201,92,94,272,272,
21,56,95,91,129,163,95,127,166,91,2147485955,200,275,202,167,236,95,0,20,19,0,0,0,0,308,0,0,0,0,0,0,0,273,275,272,272,
128,130,131,91,130,128,95,0,55,19,2251,2465,2251,2251,3758098695,3758098695,3758098695,3758098695,3758098695,3758098695,3758098695,0,0,0,274,0,0,0,0,0,0,0,165,165,165,131,
91,58,21,56,95,164,166,0,164,166,165,131,56,58,56,201,58,19,23,59,0,0,0,19,0,23,92,0,0,0,0,0,0,20,21,22,
19,165,128,130,23,22,0,55,22,0,0,91,237,201,93,236,163,58,19,23,0,0,0,20,21,22,0,20,0,0,0,235,55,56,57,58,
166,0,91,95,127,23,21,56,95,55,59,91,201,202,93,275,202,202,95,164,128,0,166,0,0,58,59,164,202,0,0,93,91,92,236,238,
20,21,19,166,0,91,238,272,58,56,58,56,272,201,130,128,271,93,58,59,127,165,3221225638,1610612902,202,0,3221225637,21,19,0,0,2147483667,127,128,129,130,
56,92,95,0,20,56,236,203,93,130,165,128,202,238,58,56,203,130,128,95,0,20,56,0,203,0,201,0,0,0,0,93,163,164,165,166,
238,163,95,0,91,163,199,130,165,166,0,91,201,93,238,130,165,23,56,95,2132,3221225602,57,0,0,0,163,0,19,0,0,0,0,20,21,22,
128,203,58,59,164,0,130,131,0,0,0,91,200,201,236,95,0,127,128,95,1610612756,165,165,166,20,22,0,235,93,93,0,0,0,0,0,0,
91,274,238,95,236,2307,95,0,0,0,0,91,93,200,93,95,55,59,127,131,23,59,0,0,91,58,0,271,167,273,0,0,0,0,0,0,
56,274,235,95,20,56,58,21,21,22,0,91,237,275,272,95,91,58,21,21,201,95,0,0,91,58,94,0,0,0,0,0,0,0,0,0,
201,199,275,95,91,93,199,272,239,58,21,56,200,239,163,58,56,239,163,275,130,131,0,0,91,238,238,0,0,0,0,0,0,0,0,275,
237,130,165,131,91,163,93,130,2538,165,128,130,165,165,128,200,130,165,165,165,166,55,59,21,23,235,93,201,93,0,0,0,0,0,0,0,
92,95,0,201,91,275,130,131,2147485879,20,56,58,22,21,127,0,0,0,0,0,0,0,0,92,93,93,200,93,167,0,0,0,0,0,0,0,
130,166,0,0,91,130,166,0,0,91,235,203,19,0,0,0,0,0,0,0,0,0,0,0,93,271,93,19,203,0,0,0,0,0,0,0,
95,0,55,22,164,166,55,59,55,56,201,93,58,59,0,0,0,0,0,0,0,0,0,0,0,164,165,166,0,0,0,0,0,0,390,0,
111,20,56,95,0,201,56,58,56,235,272,131,200,95,0,0,91,95,0,0,0,93,0,93,163,59,55,0,0,0,310,0,0,0,309,383,
131,20,21,22,164,165,166,1073741844,3221225492,0,0,0,0,0,0,0,0,0,0,0,0,0,93,167,167,95,127,0,0,418,0,0,0,0,0,419,
55,56,201,58,59,20,2147483668,1610612795,2684354580,130,0,0,0,0,0,0,0,0,0,0,0,0,0,203,271,131,0,19,309,310,311,354,355,356,344,345,
91,272,273,94,58,19,58,1610612794,2684354581,1073741843,19,0,19,0,0,0,0,0,0,0,0,0,0,129,272,22,20,22,345,346,347,390,391,392,307,419
</data>
 </layer>
 <layer id="24" name="wall-8" width="36" height="23">
  <data encoding="csv">
2460,2461,2462,2114,2114,2114,2105,2095,0,0,0,0,0,0,0,0,0,0,0,0,0,2520,55,0,0,0,0,0,0,0,2684354918,343,344,345,346,347,
2476,2477,2478,2114,2114,2114,2114,2116,0,0,0,0,0,0,0,0,0,0,0,0,0,0,2134,0,0,2538,0,0,0,0,0,0,380,381,382,383,
2492,2493,2494,2114,2114,0,2125,2126,0,0,0,0,0,0,0,0,0,0,0,0,0,0,0,0,0,0,0,0,0,0,0,415,416,417,418,419,
2508,2509,2510,2114,0,0,0,2136,0,0,0,0,0,0,0,0,0,0,0,0,0,0,0,3221225628,381,0,0,0,0,0,0,451,452,453,454,384,
2114,2114,2114,2114,2125,0,0,0,0,0,0,0,0,0,0,0,0,0,0,0,0,0,0,0,0,0,0,0,0,0,0,0,95,0,0,2147484006,
2134,2134,2134,2134,2135,0,0,0,0,127,0,2102,2094,2094,2094,2094,2094,2094,2095,0,0,0,0,0,0,0,0,0,0,0,0,0,95,0,0,0,
2144,2144,2144,2144,2145,0,0,0,2093,2094,2094,2103,2114,2114,2479,2480,2114,2114,2105,2094,2094,2095,0,166,3221225494,3221225493,3221225492,164,0,0,0,0,95,0,0,0,
0,0,0,0,0,0,0,2102,2103,2114,2114,2114,2114,2114,2495,2496,2114,2114,2114,2114,0,2105,2106,0,0,0,0,0,0,0,167,0,95,0,0,2432,
0,0,0,0,0,0,0,2112,2114,2114,2114,2114,2114,2114,2511,2512,2114,2114,2114,2114,0,0,2116,164,0,0,166,0,0,203,19,0,95,0,0,0,
0,0,0,0,0,0,0,2122,2134,2137,2114,2114,2114,2114,2114,2114,2114,2114,2114,2114,2138,2134,2126,0,2432,0,0,0,0,273,0,0,0,59,0,0,
0,0,0,0,0,0,0,2132,2144,2147,2114,2114,2114,2114,2114,2114,2114,2114,2466,2114,2116,2144,2136,0,0,0,163,0,0,93,93,272,93,95,0,0,
0,0,0,0,0,0,0,0,0,2112,2114,2114,2114,2114,2114,2543,2544,2545,2114,2114,2116,0,0,0,165,165,23,0,0,163,271,200,275,273,93,201,
0,0,0,0,0,0,0,0,0,2112,2114,2114,2114,2114,2114,2559,2560,2561,2114,2114,2116,0,0,0,0,0,19,0,0,0,273,236,201,93,237,271,
0,0,0,0,0,0,0,0,0,2122,2134,2134,0,0,0,2134,2134,2134,2134,2134,2126,0,0,2428,2429,0,0,0,0,237,0,0,0,0,347,167,
0,0,0,0,0,0,0,0,0,2132,2144,2144,0,0,0,2144,2144,2144,2144,2144,2136,0,0,0,0,0,0,0,0,386,0,0,0,0,0,347,
0,0,0,0,0,0,0,0,2538,1610612863,0,0,0,0,0,0,0,0,0,0,1610612831,22,20,0,0,0,0,0,0,343,0,0,0,0,0,0,
0,0,0,0,0,0,0,0,325,412,340,0,2684354687,0,2254,0,0,0,0,0,0,0,0,0,0,0,0,0,0,0,0,0,0,0,0,0,
0,0,0,0,0,0,0,0,0,0,2246,0,0,0,2283,0,0,0,0,0,0,0,0,0,0,0,0,0,0,0,0,0,0,0,351,352,
0,0,0,0,0,2433,0,0,0,0,0,2366,2367,2368,0,0,0,0,0,0,0,0,0,0,0,131,0,55,0,0,0,0,0,0,0,427,
0,0,0,0,2433,2449,0,0,0,0,0,0,0,0,0,0,0,0,0,0,0,93,0,0,0,0,0,0,0,0,0,0,0,0,0,0,
0,164,165,57,2449,2431,165,165,55,0,0,0,0,0,0,0,0,0,0,0,0,0,0,0,0,0,55,0,0,0,0,0,0,0,0,0,
0,0,0,0,0,2447,0,0,91,0,0,0,0,0,0,0,0,0,0,0,0,0,0,2432,0,0,91,0,0,0,0,0,0,0,0,0,
0,0,0,0,0,0,2431,2433,127,0,0,0,0,0,0,0,0,2465,0,0,0,0,2431,2448,0,0,164,165,0,0,0,0,0,0,0,0
</data>
 </layer>
 <layer id="34" name="Animated water" width="36" height="23">
  <data encoding="csv">
0,0,0,0,0,0,0,0,0,0,2368,2366,2367,2367,2337,203,2281,2279,0,0,0,0,0,0,2338,2339,2340,2241,2273,0,0,0,0,0,2475,2476,
0,0,0,0,0,0,0,0,0,3221227809,3221227808,2191,2250,2251,2279,0,0,2339,2367,2367,2367,2367,2367,2367,2367,2368,2191,2191,2336,2337,0,2594,0,0,2491,2492,
0,0,0,0,0,0,0,0,0,0,1610615103,2191,2366,2367,2367,2367,2367,2340,2191,2191,2191,2191,2191,2191,2191,2191,2191,2191,2191,2366,2684356814,0,0,0,2507,2508,
0,0,0,0,0,14,0,16,0,0,1610615103,2191,2191,2191,2191,2191,2191,2191,2191,2191,2191,2191,2191,2293,2251,2252,2191,2191,2191,2191,2684356843,1610615060,0,0,0,0,
0,0,0,0,0,0,0,0,0,0,2684356880,2684356939,0,0,0,0,0,0,0,0,0,2684356939,2684356939,2322,274,2281,2684356938,2684356909,2191,2191,2191,3221227784,0,0,0,0,
0,0,0,0,0,0,0,0,0,0,0,0,0,0,0,0,0,0,0,0,271,0,129,274,0,0,0,0,2252,2250,2251,2320,0,0,0,0,
0,0,0,0,0,0,0,124,125,0,0,0,0,0,0,0,0,0,0,0,0,0,0,0,0,0,0,0,2281,2279,2280,0,0,0,0,0,
0,0,0,0,0,0,0,0,0,0,0,0,0,0,0,0,0,0,0,0,0,0,0,0,0,0,0,0,0,0,0,0,0,0,0,0,
2330,2330,2330,2330,2330,2273,0,0,0,0,0,0,0,0,0,0,0,0,0,0,0,0,0,0,0,0,0,0,0,0,0,0,0,0,0,0,
2251,2251,2252,2191,2191,2302,0,0,0,0,0,0,0,0,0,0,0,0,0,0,0,0,0,0,0,0,0,0,0,0,0,0,0,0,0,0,
2339,2337,2281,2252,2191,2278,0,0,0,0,0,0,0,0,0,0,0,0,0,0,0,0,0,129,0,0,0,0,0,0,0,0,0,0,0,0,
2311,2366,2337,2374,2264,2320,0,0,0,0,0,0,129,0,0,0,0,0,0,0,0,0,0,0,0,0,0,0,0,0,0,0,0,0,0,0,
2311,2191,2307,199,236,2309,0,0,0,0,0,0,0,0,0,0,0,0,0,0,0,0,0,0,0,0,0,0,0,0,0,0,0,0,0,0,
2281,2251,2466,2258,2367,2270,0,0,0,0,0,0,0,0,0,0,0,0,0,0,0,0,0,0,0,0,0,94,202,0,0,0,0,0,0,0,
2309,275,2339,2340,2191,2336,0,0,0,0,0,0,0,0,0,0,0,0,0,0,0,0,0,0,0,0,0,273,19,0,0,0,0,0,0,0,
275,2309,2281,2251,2252,2191,2191,2191,3221227842,0,0,0,0,0,0,0,0,1610612867,21,19,0,0,2433,0,0,0,0,0,0,0,0,0,0,0,0,0,
271,2309,2309,0,2281,2282,2191,2191,2191,0,0,0,0,0,0,2367,2331,2367,2367,2337,272,201,201,0,0,0,0,0,0,0,0,0,0,0,0,0,
2309,2309,2309,2309,2309,2311,2191,2191,2191,2191,2246,0,0,0,0,2191,2191,2191,2191,2307,239,92,201,273,0,0,0,0,0,0,0,0,0,0,0,0,
2309,271,2309,2309,2309,2281,2251,2252,2191,2191,0,2366,2367,2368,2191,2191,2278,2251,2251,2279,201,237,201,201,202,0,0,0,0,0,343,0,0,0,0,0,
2458,2309,2309,2309,57,201,57,2465,2251,2252,0,0,0,2191,2191,2191,2307,201,199,272,199,93,201,0,0,0,0,343,0,0,0,0,0,0,0,0,
2474,0,0,0,2432,0,0,0,0,2281,2251,2252,2191,2191,2191,0,2336,2367,2367,2337,57,236,0,0,0,0,0,2147484102,0,0,343,0,0,0,0,0,
0,2433,2431,2433,2448,2432,2465,0,0,0,0,2375,2265,2265,2234,0,2191,2191,2191,2366,2367,2367,2337,0,0,0,0,379,0,0,0,0,0,0,0,0,
0,2449,2447,2449,0,2448,0,2684357035,2684357019,2684357003,0,0,0,0,2372,2344,2250,2251,2251,2252,2191,0,2279,0,0,0,0,415,0,0,0,0,0,0,0,0
</data>
 </layer>
 <layer id="31" name="stairs" width="36" height="23">
  <data encoding="csv">
0,0,0,0,0,0,0,0,0,0,0,0,0,0,0,0,0,0,0,0,0,0,0,0,0,0,0,0,2449,0,0,2578,2579,2580,2581,2582,
0,0,0,0,0,0,0,0,0,0,0,0,0,0,0,0,0,0,0,0,0,0,0,156,157,158,0,0,0,0,0,2465,2595,2596,2597,2598,
0,0,0,0,0,0,0,0,0,0,0,0,0,0,0,0,0,0,0,0,0,0,0,192,193,194,0,0,0,0,0,2610,2611,2612,2613,2614,
0,0,0,0,0,14,15,16,0,0,0,0,0,0,0,0,0,0,0,0,0,0,0,228,229,230,0,0,0,0,0,2466,0,2427,2428,2429,
0,0,0,0,0,50,51,52,53,0,0,0,0,0,0,0,0,0,0,0,0,0,0,0,0,0,0,0,0,0,0,2427,0,2443,2444,2445,
0,0,0,0,0,86,87,88,89,0,0,0,0,0,0,0,0,0,0,0,0,0,2432,0,0,0,0,0,0,0,0,0,2427,2459,2460,2461,
0,0,0,0,0,122,123,124,125,0,0,0,0,0,0,0,0,0,0,0,0,0,2448,0,0,0,0,0,2431,0,0,0,0,2475,2476,2477,
0,0,0,0,0,0,0,0,0,0,0,2499,2500,0,0,0,0,2499,2500,0,0,0,0,0,0,0,2465,0,2447,0,0,0,0,2491,2492,2493,
0,0,0,0,0,0,0,0,0,0,0,2515,2516,0,0,0,0,2515,2516,0,0,0,0,0,0,0,0,0,0,0,0,2433,0,2507,2508,2509,
0,0,0,0,0,0,0,0,0,0,0,0,0,0,0,0,0,0,0,0,0,0,0,0,0,0,0,0,0,0,0,2449,0,2479,2480,2494,
0,0,2520,0,0,0,0,0,0,0,0,0,0,0,0,0,0,0,0,0,0,0,0,0,2423,2424,2425,2426,0,0,0,0,0,2497,2498,2465,
0,2552,0,415,0,0,0,0,0,0,0,0,0,0,0,0,0,0,0,0,0,0,0,0,2439,2440,2441,2442,0,0,2463,2464,0,2513,2514,0,
0,0,0,0,0,0,0,0,0,0,0,0,0,0,0,0,0,0,0,0,0,0,2523,2524,2455,2456,2457,2458,0,0,0,0,0,0,0,2520,
2429,2430,0,0,0,0,0,0,0,0,0,0,156,157,158,0,0,0,0,0,0,2431,0,0,2471,2472,2473,2474,0,0,0,0,0,0,0,2466,
2445,2446,0,0,0,0,0,0,0,0,0,0,192,193,194,0,0,0,0,0,0,2447,0,0,2487,2488,2489,2490,0,0,0,0,0,0,0,0,
2461,2462,0,0,0,0,2336,2328,2538,0,0,0,228,229,230,0,0,0,0,0,0,0,0,0,2503,2504,2505,2506,0,0,0,0,0,0,0,0,
2477,2478,0,0,0,0,0,0,2147485879,0,0,0,0,2539,2540,0,0,0,0,0,0,0,0,0,0,0,0,0,2553,0,0,0,0,0,0,343,
2493,2494,0,0,0,0,0,0,0,0,2246,0,0,2258,0,0,0,0,0,0,0,0,2432,0,0,0,0,0,2538,357,358,0,0,0,0,0,
2509,2510,0,0,0,0,2537,0,0,0,2191,2366,2367,2368,2191,0,0,2431,0,0,2465,0,2448,0,0,0,0,2537,0,0,0,0,0,0,0,0,
2463,2464,0,2432,2538,0,0,0,0,0,2191,2191,2191,2191,2191,0,0,2447,2539,2540,2554,0,2466,0,0,0,0,0,0,0,0,0,0,0,0,0,
0,2431,0,2448,0,0,0,0,0,0,0,0,2191,2191,2191,2191,0,0,0,0,0,0,0,0,0,0,0,0,0,0,0,0,0,0,0,2433,
2464,2447,0,2432,0,0,0,0,0,0,2497,2498,0,0,0,2191,0,0,0,0,0,2521,0,0,0,0,0,0,0,0,0,0,0,0,0,2449,
2432,2428,2429,2448,0,0,0,0,0,0,2513,2514,0,0,0,0,0,2465,2466,0,0,0,2431,0,0,2555,2539,2540,0,0,0,0,0,0,0,0
</data>
 </layer>
 <layer id="36" name="font" width="36" height="23">
  <data encoding="csv">
0,0,0,0,2497,2498,0,0,0,0,0,0,0,0,2432,0,0,2465,0,0,0,0,0,0,0,0,0,0,0,0,0,0,0,0,0,0,
0,0,0,0,2513,2514,0,0,0,0,0,0,0,0,2448,0,0,0,0,0,0,0,0,0,0,0,0,0,0,0,0,0,0,0,0,0,
0,0,0,0,0,0,0,0,0,0,0,0,0,0,0,0,0,0,0,0,0,0,0,0,0,0,0,0,0,0,0,0,0,0,0,0,
0,2497,2498,0,0,0,0,0,0,0,0,0,0,0,0,0,0,0,0,0,0,0,0,0,0,0,0,0,0,0,0,0,0,0,0,0,
0,2513,2514,0,0,0,0,0,0,0,2553,0,0,0,0,0,0,0,0,0,0,0,0,0,0,0,0,0,0,0,0,0,0,0,0,0,
0,0,0,0,0,0,0,0,0,0,0,0,0,0,0,0,0,0,0,0,0,0,0,0,0,0,2520,0,0,0,0,2537,0,0,0,0,
0,0,0,0,0,0,0,0,0,0,0,2567,2568,0,2499,2500,0,2567,2568,0,0,0,0,0,0,0,0,0,0,0,0,0,0,0,0,0,
0,0,0,0,0,0,0,0,0,0,0,2583,2584,0,2515,2516,0,2583,2584,0,0,0,0,0,0,0,0,0,0,0,0,0,0,0,0,0,
0,0,0,0,0,0,0,0,0,0,0,0,0,0,0,0,0,0,0,0,0,0,0,0,0,0,0,0,0,0,0,0,0,0,0,0,
2524,0,0,0,0,0,0,0,0,0,0,0,0,0,0,0,0,0,0,0,0,0,0,0,0,0,0,0,0,0,0,0,0,2499,2500,0,
0,0,0,0,0,0,0,0,0,0,0,0,0,0,2525,2526,0,0,0,0,0,0,0,0,0,0,0,0,0,0,0,0,0,2515,2516,0,
0,0,0,0,0,0,0,0,0,0,0,0,0,0,2541,2542,0,0,0,0,0,0,0,0,0,0,0,0,0,0,0,0,0,0,0,0,
0,0,0,0,0,0,0,0,0,0,0,0,0,0,2557,2558,0,0,0,0,0,0,0,0,0,0,0,0,0,0,0,0,0,0,0,0,
0,0,0,0,0,0,0,0,0,0,0,0,0,0,0,0,0,0,0,0,0,0,0,0,0,0,0,0,0,0,0,0,0,0,0,0,
0,0,0,0,0,0,2539,2540,2433,0,0,0,0,0,0,0,0,0,0,0,0,0,0,0,0,0,0,0,0,0,0,0,0,0,0,0,
0,2569,0,0,0,2573,0,0,2449,0,0,0,0,0,0,0,0,0,0,0,0,0,0,0,0,2428,2429,0,0,0,0,0,0,0,0,0,
2569,2570,2571,2572,2573,0,0,0,0,0,0,0,0,0,0,0,0,0,0,0,0,0,0,0,0,0,0,0,0,0,0,0,0,0,0,0,
2585,2586,2587,2588,2589,0,0,0,0,0,0,0,0,0,0,0,0,2191,0,0,0,0,0,0,0,0,0,0,0,0,0,0,0,0,0,0,
2601,2602,2603,2604,2605,2621,0,0,0,0,0,0,0,0,0,0,0,0,0,0,0,0,0,0,0,0,0,0,0,0,0,0,0,0,0,0,
2617,2618,2619,2620,2621,0,0,0,0,0,0,0,0,0,0,0,0,0,0,2552,0,0,0,0,0,0,0,0,0,0,0,0,0,0,0,0,
0,0,2424,2425,0,0,0,0,0,0,2499,2500,0,0,0,0,0,0,0,0,0,0,0,0,2536,0,0,0,0,0,0,0,0,0,0,0,
0,0,0,0,0,0,0,0,0,0,2515,2516,0,0,0,0,0,0,0,0,0,0,0,0,0,0,0,0,0,0,0,0,0,0,0,0,
0,0,0,0,2431,0,0,0,0,0,0,0,0,0,0,0,0,0,0,0,0,0,0,0,0,2555,2556,0,0,0,0,0,0,0,0,0
</data>
 </layer>
 <layer id="37" name="portal" width="36" height="23">
  <data encoding="csv">
0,0,0,0,0,0,0,0,0,0,0,0,0,0,0,0,0,0,0,0,0,0,0,0,0,0,0,0,0,0,0,0,0,0,0,0,
0,0,0,0,0,0,0,0,0,0,0,0,0,0,0,0,0,0,0,0,0,0,0,0,0,0,0,0,0,0,0,0,0,0,0,0,
0,0,0,0,0,0,0,0,0,0,0,0,0,0,0,0,0,0,0,0,0,0,0,0,0,0,0,0,0,0,0,0,0,0,0,0,
0,0,0,0,0,0,0,0,0,0,0,0,0,0,0,0,0,0,0,0,0,0,0,0,0,0,0,0,0,0,0,0,0,0,0,0,
0,0,0,0,0,0,0,0,0,0,0,0,0,0,0,0,0,0,0,0,0,0,0,0,0,0,0,0,0,0,0,0,0,0,0,0,
0,0,0,0,0,0,0,0,0,0,0,0,0,0,0,0,0,0,0,0,0,0,0,0,0,0,0,0,0,0,0,0,0,0,0,0,
0,0,0,0,0,0,0,0,0,0,0,0,0,0,0,0,0,0,0,0,0,0,0,0,0,0,0,0,0,0,0,0,0,0,0,0,
0,0,0,0,0,0,0,0,0,0,0,0,0,0,0,0,0,0,0,0,0,0,0,0,0,0,0,0,0,0,0,0,0,0,0,0,
0,0,0,0,0,0,0,0,0,0,0,0,0,0,0,0,0,0,0,0,0,0,0,0,0,0,0,0,0,0,0,0,0,0,0,0,
0,0,0,0,0,0,0,0,0,0,0,0,0,0,0,0,0,0,0,0,0,0,0,0,0,0,0,0,0,0,0,0,0,0,0,0,
0,0,0,0,0,0,0,0,0,0,0,0,0,0,0,0,0,0,0,0,0,0,0,0,0,0,0,0,0,0,0,0,0,0,0,0,
0,0,0,0,0,0,0,0,0,0,0,0,0,0,0,0,0,0,0,0,0,0,0,0,0,0,0,0,0,0,0,0,0,0,0,0,
0,0,0,0,0,0,0,0,0,0,0,0,0,0,0,0,0,0,0,0,0,0,0,0,0,0,0,0,0,3030,3031,3032,3033,3034,3035,3036,
0,0,0,0,0,0,0,0,0,0,0,0,0,0,0,0,0,0,0,0,0,0,0,0,0,0,0,0,0,3303,3304,3305,3306,3307,3308,3309,
0,0,0,0,0,0,0,0,0,0,0,0,0,0,0,0,0,0,0,0,0,0,0,0,0,0,0,0,0,3576,3577,3578,3579,3580,3581,3582,
0,0,0,0,0,0,0,0,0,0,0,0,0,0,0,0,0,0,0,0,0,0,0,0,0,0,0,0,0,3849,3850,3851,3852,3853,3854,3855,
0,0,0,0,0,0,0,0,0,0,0,0,0,0,0,0,0,0,0,0,0,0,0,0,0,0,0,0,0,4122,4123,4124,4125,4126,4127,4128,
0,0,0,0,0,0,0,0,0,0,0,0,0,0,0,0,0,0,0,0,0,0,0,0,0,0,0,0,0,4395,4396,4397,4398,4399,4400,4401,
2433,0,0,0,0,0,0,0,0,0,0,0,0,0,0,0,0,0,0,0,0,0,0,0,0,0,0,0,0,4668,4669,4670,4671,4672,4673,4674,
2449,0,0,0,0,0,0,0,0,0,0,0,0,0,0,0,0,0,0,0,0,0,0,0,0,0,0,0,0,4941,4942,4943,4944,4945,4946,4947,
0,0,0,0,0,0,0,0,0,0,0,0,0,0,0,0,0,0,0,0,0,0,0,0,0,0,0,0,0,0,0,0,0,0,0,0,
0,0,0,0,0,0,0,0,0,0,0,0,0,0,0,0,0,0,0,0,0,0,0,0,0,0,0,0,0,0,0,0,0,0,0,0,
0,0,0,0,0,0,0,0,0,0,0,0,2465,0,0,0,0,0,0,0,0,0,0,0,0,0,0,0,0,0,0,0,0,0,0,0
</data>
 </layer>
 <layer id="38" name="light" width="36" height="23">
  <data encoding="csv">
0,0,0,0,2515,2516,0,0,0,0,0,0,0,0,0,0,0,0,0,0,0,0,0,0,0,0,0,0,0,0,0,0,0,0,0,0,
0,0,0,0,0,0,0,0,0,0,0,0,0,0,0,0,0,0,0,0,0,0,0,0,0,0,0,0,0,0,0,0,0,0,0,0,
0,2499,2500,0,0,0,0,0,0,0,0,0,0,0,0,0,0,0,0,0,0,0,0,0,0,0,0,0,0,0,0,0,0,0,0,0,
0,2515,2516,0,0,0,0,0,0,0,0,0,0,0,0,0,0,0,0,0,0,0,0,0,0,0,0,0,0,0,0,0,0,0,0,0,
0,0,0,0,0,0,0,0,0,0,0,0,0,0,0,0,0,0,0,0,0,0,0,0,0,0,0,0,0,0,0,0,0,0,0,0,
0,0,0,0,0,0,0,0,0,0,0,0,0,0,0,0,0,0,0,0,0,0,0,0,0,0,0,0,0,0,0,0,0,0,0,0,
0,0,0,0,0,0,0,0,0,0,0,0,0,0,0,0,0,0,0,0,0,0,0,0,0,0,0,0,0,0,0,0,0,0,0,0,
0,0,0,0,0,0,0,0,0,0,0,0,0,0,0,0,0,0,0,0,0,0,0,0,0,0,0,0,0,0,0,0,0,0,0,0,
0,0,0,0,0,0,0,0,0,0,0,0,0,0,0,0,0,0,0,0,0,0,0,0,0,0,0,0,0,0,0,0,0,0,0,0,
0,0,0,0,0,0,0,0,0,0,0,0,0,0,0,0,0,0,0,0,0,0,0,0,0,0,0,0,0,0,0,0,0,0,0,0,
0,0,0,0,0,0,0,0,0,0,0,0,0,0,0,0,0,0,0,0,0,0,0,0,0,0,0,0,0,0,0,0,0,0,0,0,
0,0,0,0,0,0,0,0,2466,0,0,0,0,0,0,0,0,0,0,0,0,0,0,0,0,0,0,0,0,0,0,0,0,0,0,0,
0,0,0,0,0,0,0,0,0,0,0,0,0,0,0,0,0,0,0,0,0,0,0,0,0,0,0,0,0,0,0,0,0,0,0,0,
0,0,0,0,0,0,0,0,0,0,0,0,0,0,0,0,0,0,0,0,0,0,0,0,0,0,0,0,0,0,0,0,0,0,0,0,
0,0,0,0,0,0,0,0,0,0,0,0,0,0,0,0,0,0,0,0,0,0,0,0,0,0,0,0,0,0,0,0,0,0,0,0,
0,0,0,0,0,0,0,0,0,0,0,0,0,0,0,0,0,0,0,0,0,0,0,0,0,0,0,0,0,0,0,0,0,0,0,0,
0,0,0,0,0,0,0,0,0,0,0,0,0,0,0,0,0,0,0,0,0,0,0,0,0,0,0,0,0,0,0,0,0,0,0,0,
0,0,0,0,0,0,0,0,0,0,0,0,0,0,0,0,0,0,0,0,0,0,0,0,0,0,0,0,0,0,0,0,0,0,0,0,
0,0,0,0,0,0,0,0,0,0,0,0,0,0,0,0,0,0,0,0,0,0,0,0,0,0,0,0,0,0,0,0,0,0,0,0,
0,0,0,0,0,0,0,0,0,0,0,0,0,0,0,0,0,0,0,0,0,0,0,0,0,0,0,0,0,0,0,0,0,0,0,0,
0,0,0,0,0,0,0,0,0,0,0,0,0,0,0,0,0,0,0,0,0,0,0,0,0,0,0,0,0,0,0,0,0,0,0,0,
0,0,0,0,0,0,0,0,0,0,0,0,0,0,0,0,0,0,0,0,0,0,0,0,0,0,0,0,0,0,0,0,0,0,0,0,
0,0,0,0,0,0,0,0,0,0,0,0,0,0,0,0,0,0,0,0,0,0,0,0,0,0,0,0,0,0,0,0,0,0,0,0
</data>
 </layer>
 <layer id="39" name="plants" width="36" height="23">
  <data encoding="csv">
0,0,0,0,0,0,0,0,0,0,0,0,0,0,0,0,0,0,0,0,0,0,0,0,0,0,0,0,0,0,0,0,0,0,0,0,
0,0,0,0,0,0,0,0,0,0,0,0,0,0,0,0,0,0,0,0,0,0,0,0,0,0,0,0,0,0,0,0,0,0,0,0,
0,0,0,0,0,0,0,0,2431,0,0,0,0,0,0,0,0,0,0,0,0,0,0,0,0,0,0,0,0,0,0,0,0,0,0,0,
0,0,0,0,0,0,0,0,2447,0,0,0,0,0,0,0,0,0,0,0,0,0,0,0,0,0,0,0,0,0,0,0,0,0,0,0,
0,0,0,0,0,0,0,0,0,0,0,0,0,0,0,0,0,0,0,0,0,0,0,0,0,0,0,0,0,0,0,0,0,0,0,0,
0,0,0,0,0,0,0,0,0,0,0,0,0,0,0,0,0,0,0,0,0,0,0,0,0,0,0,0,0,0,0,0,0,0,0,0,
0,0,0,0,0,2465,0,0,0,0,0,0,0,0,0,0,0,0,0,0,0,0,0,0,0,0,0,0,0,0,0,0,0,0,0,0,
0,0,0,0,0,0,0,0,2432,0,0,0,0,0,0,0,0,0,0,0,0,0,0,0,0,0,0,0,0,0,0,0,0,0,0,0,
0,0,0,0,0,0,0,0,2448,0,0,0,0,0,0,0,0,0,0,0,0,0,0,0,0,0,0,0,0,0,0,0,0,0,0,0,
0,0,0,0,0,0,0,0,0,0,0,0,0,0,0,0,0,0,0,0,0,0,0,0,0,0,0,0,0,0,0,0,0,0,0,0,
0,0,0,0,0,0,0,0,0,0,0,0,0,0,0,0,0,0,0,0,0,0,0,0,0,0,0,0,0,0,0,0,0,0,0,0,
0,0,0,0,0,0,0,0,0,0,0,0,0,0,0,0,0,0,0,0,0,0,0,0,0,0,0,0,0,0,0,0,0,0,0,0,
0,0,0,0,0,0,0,0,0,0,0,0,0,0,0,0,0,0,0,0,0,0,0,0,0,0,0,0,0,0,0,0,0,0,0,0,
0,0,0,0,0,0,0,0,0,0,0,0,0,0,0,0,0,0,0,0,0,0,0,0,0,0,0,0,0,0,0,0,0,0,0,0,
0,0,0,0,0,0,0,0,0,0,0,0,0,0,0,0,0,0,0,0,0,0,0,0,0,0,0,0,0,0,0,0,0,0,0,0,
0,0,0,0,0,0,0,0,0,0,0,0,0,0,0,0,0,0,0,0,0,0,0,0,0,0,0,0,0,0,0,0,0,0,0,0,
0,0,0,0,0,0,0,0,0,0,0,0,0,0,0,0,0,0,0,0,0,0,0,0,0,0,0,0,0,0,0,0,0,0,0,0,
0,0,0,0,0,0,0,0,0,0,0,2463,2464,0,0,0,0,0,0,0,0,0,0,0,0,0,0,0,0,0,0,0,0,0,0,0,
0,0,0,0,0,0,0,0,0,0,0,0,0,0,0,0,0,0,0,0,0,0,0,0,0,0,0,0,0,0,0,0,0,0,0,0,
0,0,0,0,0,0,0,0,0,0,0,0,0,0,0,0,0,0,0,0,0,0,0,0,0,0,0,0,0,0,0,0,0,0,0,0,
0,0,0,0,0,0,0,0,0,0,0,0,0,0,0,0,0,0,0,0,0,0,0,0,0,0,0,0,0,0,0,0,0,0,0,0,
0,0,0,0,0,0,0,0,0,0,0,0,0,0,0,0,0,0,0,0,0,0,0,0,0,0,0,0,0,0,0,0,0,0,0,0,
0,0,0,0,0,0,0,0,0,0,0,0,0,0,0,0,0,0,0,0,0,0,0,0,0,0,0,0,0,0,0,0,0,0,0,0
</data>
 </layer>
 <layer id="42" name="hero" width="36" height="23">
  <data encoding="csv">
0,0,0,0,0,0,0,0,0,0,0,0,0,0,0,0,0,0,0,0,0,0,0,0,0,0,0,0,0,0,0,0,0,0,0,0,
0,0,0,0,0,0,0,0,0,0,0,0,0,0,0,0,0,0,0,0,0,0,0,0,0,0,0,0,0,0,0,0,0,0,0,0,
0,0,0,0,0,0,0,0,0,0,0,0,0,0,0,0,0,0,0,0,0,0,0,0,0,0,0,0,0,0,0,0,0,0,0,0,
0,0,0,0,0,0,0,0,0,0,0,0,0,0,0,0,0,0,0,0,0,0,0,0,0,0,0,0,0,0,0,0,0,0,0,0,
0,0,0,0,0,0,0,0,0,0,0,0,0,0,0,0,0,0,0,0,0,0,0,0,0,0,0,0,0,0,0,0,0,0,0,0,
0,0,0,0,0,0,0,0,0,0,0,0,0,0,0,0,0,0,0,0,0,0,0,0,0,0,0,0,0,0,0,0,0,0,0,0,
0,0,0,0,0,0,0,0,0,0,0,0,0,0,0,0,0,0,0,0,0,0,0,0,0,0,0,0,0,0,0,0,0,0,0,0,
0,0,0,0,0,0,0,0,0,0,0,0,0,0,0,0,0,0,0,0,0,0,0,0,0,0,0,0,0,0,0,0,0,0,0,0,
0,0,0,0,0,0,0,0,0,0,0,0,0,0,0,0,0,0,0,0,0,0,0,0,0,0,0,0,0,0,0,0,0,0,0,0,
0,0,0,0,0,0,0,0,0,0,0,0,0,0,0,0,0,0,0,0,0,0,0,0,0,0,0,0,0,0,0,0,0,0,0,0,
0,0,0,0,0,0,0,0,0,0,0,0,0,0,0,0,0,0,0,0,0,0,0,0,0,0,0,0,0,0,0,0,0,0,0,0,
0,0,0,0,0,0,0,0,0,0,0,0,0,0,0,0,0,0,0,0,0,0,0,0,0,0,0,0,0,0,0,0,0,0,0,0,
0,0,0,0,0,0,0,0,0,0,0,0,0,0,0,0,0,0,0,0,0,0,0,0,0,0,0,0,0,0,0,0,0,0,0,0,
0,0,0,0,0,0,0,0,0,0,0,0,0,0,0,0,0,0,0,0,0,0,0,0,0,0,0,0,0,0,0,0,0,0,0,0,
0,0,0,0,0,0,0,0,0,0,0,0,0,0,0,0,0,0,0,0,0,0,0,0,0,0,0,0,0,0,0,0,0,0,0,0,
0,0,0,0,0,0,0,0,0,0,0,0,0,0,0,0,0,0,0,0,0,0,0,0,0,0,0,0,0,0,0,0,0,0,0,0,
0,0,0,0,0,0,0,0,0,0,0,0,0,0,0,0,0,0,0,0,0,0,0,0,0,0,0,0,0,0,0,0,0,0,0,0,
0,0,0,0,0,0,0,0,0,0,0,0,0,0,0,0,0,0,0,0,0,0,0,0,0,0,0,0,0,0,0,0,0,0,0,0,
0,0,0,0,0,0,0,0,0,0,0,0,0,0,0,0,0,0,0,0,0,0,0,0,0,0,0,0,0,0,0,0,0,0,0,0,
0,0,0,0,0,0,0,0,0,0,0,0,0,0,0,0,0,0,0,0,0,0,0,0,0,0,0,0,0,0,0,0,0,0,0,0,
0,0,0,0,0,0,0,0,0,0,0,0,0,0,0,0,0,0,0,0,0,0,0,0,0,0,0,0,0,0,0,0,0,0,0,0,
0,0,0,0,0,0,0,0,0,0,0,0,0,0,0,0,0,0,0,0,0,0,0,0,0,0,0,0,0,0,0,0,0,0,0,0,
0,0,0,0,0,0,0,0,0,0,0,0,0,0,0,0,0,0,0,0,0,0,0,0,0,0,0,0,0,0,0,0,0,0,0,0
</data>
 </layer>
 <objectgroup id="46" name="colision">
  <object id="3" x="341.333" y="0.67">
   <properties>
    <property name="blocked" type="bool" value="true"/>
   </properties>
   <polygon points="0,0 0,8.66667 -14.6667,20.6667 -24.6667,25.3333 -33.3333,34 -29.3333,41.3333 -18.6667,45.3333 -11.3333,55.3333 -5.33333,62 -6.66667,122 0,128 7.33333,136.667 382,140.667 394,136 404,133.333 407.333,124 410.667,114.667 415.333,109.333 416,45.3333 401.333,42.6667 366.667,45.3333 241.333,44.6667 228.667,51.3333 219.333,57.3333 217.333,72.6667 208.667,76.6667 186.667,78.6667 157.333,78.6667 132.667,78.6667 106,78.6667 70,78.6667 57.3333,69.3333 52.6667,55.3333 62.6667,42.6667 79.3333,42 103.333,39.3333 111.333,19.3333 108,14 38.6667,14.6667 25.3333,7.33333 16.6667,2"/>
  </object>
  <object id="4" x="43.3333" y="88">
   <properties>
    <property name="blocked" type="bool" value="true"/>
   </properties>
   <polygon points="0,0 9.33333,-3.33333 35.3333,-3.33333 39.3333,-1.33333 42,0 45.3333,28.6667 38,34.6667 36,49.3333 45.3333,48 44.6667,56.6667 37.3333,62.6667 16,64 2.66667,64 -5.33333,55.3333 -4.66667,50 4.66667,48 7.33333,40 7.33333,35.3333 -2.66667,35.3333 -6,30 -4.66667,15.3333"/>
  </object>
  <object id="5" x="344.667" y="-68">
   <polygon points="0,0 -20.6667,4 0.666667,2"/>
  </object>
  <object id="6" x="136" y="4.66667">
   <properties>
    <property name="blocked" type="bool" value="true"/>
   </properties>
   <polygon points="0,0 -2.66667,14.6667 4.66667,24.6667 0.666667,34.6667 2.66667,45.3333 14,52.6667 42,51.3333 46.6667,46 48.6667,36.6667 44.6667,29.3333 37.3333,28.6667 37.3333,22.6667 46.6667,22.6667 49.3333,12.6667 48.6667,-4 31.3333,-4.66667"/>
  </object>
  <object id="7" x="8.66667" y="103.333">
   <properties>
    <property name="blocked" type="bool" value="true"/>
   </properties>
   <polygon points="0,0 16,2.66667 13.3333,-20 24,-21.3333 30,-32 16.6667,-26 9.33333,-29.3333 1.33333,-40.6667 2.66667,-28"/>
  </object>
  <object id="8" x="198.667" y="1.33333">
   <properties>
    <property name="blocked" type="bool" value="true"/>
   </properties>
   <polygon points="0,0 -1.33333,20 30.6667,23.3333 31.3333,76.6667 0.666667,78 1.33333,116 1.33333,120.667 55.3333,176 65.3333,173.333 66,169.333 14.6667,116.667 44.6667,118.667 46,87.3333 46,13.3333 14,11.3333 14,0.666667"/>
  </object>
  <object id="9" x="-0.666667" y="174.667">
   <properties>
    <property name="blocked" type="bool" value="true"/>
   </properties>
   <polygon points="0,0 132,0 134.667,-33.3333 170,-33.3333 216.667,12.6667 218,18 206,22.6667 166,8 150.667,9.33333 149.333,40 2,39.3333"/>
  </object>
  <object id="10" x="0.666667" y="270.667">
   <properties>
    <property name="blocked" type="bool" value="true"/>
   </properties>
   <polygon points="0,0 158.667,-0.666667 172,10.6667 166.667,22 178,26.6667 191.333,35.3333 191.333,51.3333 176.667,60 169.333,74.6667 166,86.6667 130.667,90.6667 126.667,81.3333 118,80.6667 117.333,70.6667 102.667,56.6667 89.3333,52 86,43.3333 79.3333,33.3333 68.6667,26 58.6667,22.6667 44,22.6667 34,22.6667 20,23.3333 11.3333,24 17.3333,31.3333 10.6667,41.3333 6.66667,43.3333 0,29.3333"/>
  </object>
  <object id="11" x="29.3333" y="422.667">
   <properties>
    <property name="blocked" type="bool" value="true"/>
   </properties>
   <polygon points="0,0 14,4.66667 31.3333,2 43.3333,-6 46.6667,-19.3333 46.6667,-46 30.6667,-54.6667 27.3333,-63.3333 17.3333,-64.6667 11.3333,-68.6667 14,-78 -2,-84.6667 -11.3333,-78 -11.3333,-18"/>
  </object>
  <object id="12" x="62.6667" y="520">
   <properties>
    <property name="blocked" type="bool" value="true"/>
   </properties>
   <polygon points="0,0 35.3333,0.666667 73.3333,38.6667 74.6667,64 28,109.333 7.33333,110 -40,64 -42,43.3333"/>
  </object>
  <object id="13" x="335.333" y="729.333">
   <properties>
    <property name="blocked" type="bool" value="true"/>
   </properties>
   <polygon points="0,0 34,2 38.6667,-3.33333 38.6667,-8.66667 42,-12 42,-16.6667 38,-18 36,-21.3333 33.3333,-21.3333 31.3333,-23.3333 31.3333,-28.6667 36.6667,-30 40.6667,-30 40.6667,-65.3333 32.6667,-68 0.666667,-70 -5.33333,-68 -10,-66 -10,-38.6667 -10.6667,-31.3333 -4.66667,-29.3333 2,-29.3333 3.33333,-22.6667 3.33333,-18 -5.33333,-17.3333 -9.33333,-16.6667 -8,-10.6667"/>
  </object>
  <object id="14" x="-2.66667" y="607.333">
   <properties>
    <property name="blocked" type="bool" value="true"/>
   </properties>
   <polygon points="0,0 16.6667,22 10.6667,41.3333 8.66667,59.3333 2,64 18.6667,70 25.3333,88 12.6667,94 4,93.3333 2.66667,114 2.66667,125.333 7.33333,127.333 13.3333,116 19.3333,108.667 32.6667,123.333 32.6667,130 50,127.333 45.3333,118.667 58.6667,106 72,98.6667 87.3333,115.333 84.6667,128 131.333,128.667 133.333,120 132.667,111.333 136.667,111.333 142.667,98 152.667,98 159.333,110 162,122 160.667,128.667 58.6667,129.333 2.66667,128"/>
  </object>
  <object id="15" x="202" y="464">
   <properties>
    <property name="blocked" type="bool" value="true"/>
   </properties>
   <polygon points="0,0 12,10 37.3333,0.666667 40.6667,-6 26,-13.3333 15.3333,-14"/>
  </object>
  <object id="16" x="165.333" y="432">
   <properties>
    <property name="blocked" type="bool" value="true"/>
   </properties>
   <polygon points="0,0 -36,-2 -48,9.33333 -48.6667,19.3333 -64.6667,31.3333 -80,36.6667 -80.6667,49.3333 -62,54.6667 -48,56 -33.3333,54 -20.6667,58.6667 -13.3333,75.3333 -14,83.3333 1.33333,84.6667 14,97.3333 14.6667,114 14.6667,132 16,141.333 30.6667,146.667 29.3333,152 34.6667,153.333 36.6667,161.333 46.6667,162 49.3333,158 46.6667,153.333 45.3333,152 52,148.667 60,149.333 73.3333,154 78,158.667 80.6667,167.333 84,177.333 84.6667,183.333 88,184.667 100,184.667 110.667,184 118.667,182 127.333,184 137.333,190.667 144,195.333 142.667,204 148.667,212.667 158,218.667 168,221.333 174,216.667 184.667,214 196,217.333 204.667,222 208.667,228.667 210,238 217.333,246 230,249.333 240.667,247.333 252.667,246 263.333,252.667 272,245.333 282.667,246 294.667,251.333 304,258.667 306.667,273.333 306,276 314,276 322.667,278 330.667,283.333 334.667,290 338.667,297.333 340,301.333 356,302.667 356,291.333 365.333,282 375.333,276.667 386,274.667 399.333,274.667 411.333,274.667 423.333,274.667 432.667,274.667 444,274 455.333,277.333 463.333,289.333 466,297.333 466.667,301.333 513.333,301.333 518.667,303.333 518,296 522,288.667 530.667,282.667 540,280 546,275.333 553.333,266 553.333,260 538.667,254.667 530.667,254 527.333,253.333 527.333,250 527.333,248 523.333,247.333 517.333,248 516,250 516,250.667 510,252 496,252 482.667,254 470.667,254 462,250.667 454.667,246.667 453.333,240 452.667,232 447.333,224.667 439.333,222.667 422.667,221.333 380,220 367.333,212 358.667,206.667 354.667,190.667 358,163.333 365.333,154 379.333,149.333 389.333,148 388.667,143.333 401.333,147.333 408,153.333 429.333,153.333 446.667,153.333 452.667,148 456.667,130 456,104 450.667,94.6667 442.667,94.6667 324,93.3333 310,100 305.333,106.667 301.333,114 300.667,121.333 290.667,124.667 280,130.667 270.667,140 266.667,146.667 260,158 258,162.667 259.333,163.333 246,161.333 231.333,156.667 216.667,156.667 204.667,155.333 195.333,146.667 190,138.667 185.333,128.667 180,114.667 186,107.333 185.333,94.6667 155.333,93.3333 154.667,96 124,92.6667 121.333,98.6667 113.333,97.3333 107.333,85.3333 102,76.6667 98.6667,73.3333 94,73.3333 88.6667,67.3333 86.6667,63.3333 70,62.6667 54.6667,60.6667 47.3333,52.6667 36.6667,46 26,29.3333 24,19.3333 12,14 4.66667,14"/>
  </object>
  <object id="17" x="968" y="498.667">
   <properties>
    <property name="blocked" type="bool" value="true"/>
   </properties>
   <polygon points="0,0 9.33333,-8.66667 18.6667,0.666667 22,44 13.3333,52.6667 1.33333,46"/>
  </object>
  <object id="18" x="968.667" y="401.333">
   <properties>
    <property name="blocked" type="bool" value="true"/>
   </properties>
   <polygon points="0,0 10,-11.3333 20,-0.666667 21.3333,42 11.3333,53.3333 0.666667,42"/>
  </object>
  <object id="19" x="1089.33" y="444">
   <properties>
    <property name="blocked" type="bool" value="true"/>
   </properties>
   <polygon points="0,0 7.33333,10 18.6667,1.33333 18.6667,-43.3333 10,-52.6667 -2,-43.3333"/>
  </object>
  <object id="20" x="1086" y="499.333">
   <properties>
    <property name="blocked" type="bool" value="true"/>
   </properties>
   <polygon points="0,0 11.3333,-10 20,-0.666667 21.3333,43.3333 12,52.6667 2,45.3333"/>
  </object>
  <object id="21" x="810.667" y="486.667">
   <properties>
    <property name="blocked" type="bool" value="true"/>
   </properties>
   <polygon points="0,0 12,0 11.3333,-18 22.6667,-20.6667 26,-32 41.3333,-34.6667 62.6667,-43.3333 62,-70 62.6667,-89.3333 55.3333,-97.3333 55.3333,-111.333 50,-120.667 37.3333,-138.667 36.6667,-155.333 24.6667,-162.667 14,-162 0,-148 -0.666667,-134 -14.6667,-122 -19.3333,-102.667 -24.6667,-90.6667 -31.3333,-69.3333 -31.3333,-54.6667 -16.6667,-44.6667 -7.33333,-36 1.33333,-35.3333 7.33333,-24.6667 6,-10"/>
  </object>
  <object id="22" x="714.667" y="575.333">
   <properties>
    <property name="blocked" type="bool" value="true"/>
   </properties>
   <polygon points="0,0 6.66667,22.6667 12,4"/>
  </object>
  <object id="23" x="550" y="594.667">
   <properties>
    <property name="blocked" type="bool" value="true"/>
   </properties>
   <polygon points="0,0 10,33.3333 16,26 34.6667,28.6667 46.6667,39.3333 59.3333,35.3333 78.6667,30 82.6667,24 64.6667,20.6667 56.6667,15.3333 36.6667,24.6667 35.3333,27.3333 20,24"/>
  </object>
  <object id="24" x="750.667" y="714">
   <properties>
    <property name="blocked" type="bool" value="true"/>
   </properties>
   <polygon points="0,0 3.33333,11.3333 9.33333,2 16,-10.6667 5.33333,-28.6667 -8,-23.3333 -12.6667,-11.3333 -14.6667,-3.33333"/>
  </object>
  <object id="25" x="715.333" y="584">
   <properties>
    <property name="blocked" type="bool" value="true"/>
   </properties>
   <polygon points="0,0 -10.6667,-2.66667 -5.33333,-18 4.66667,-26.6667 19.3333,-16.6667 19.3333,-3.33333 10,6"/>
  </object>
  <object id="26" x="706.667" y="735.333">
   <properties>
    <property name="blocked" type="bool" value="true"/>
   </properties>
   <polygon points="0,0 1.33333,-14.6667 -1.33333,-19.3333 8,-28.6667 17.3333,-28.6667 28.6667,-14.6667 26,-3.33333"/>
  </object>
  <object id="27" x="685.333" y="468.667">
   <properties>
    <property name="blocked" type="bool" value="true"/>
   </properties>
   <polygon points="0,0 2.66667,6 4.66667,-4.66667 14.6667,-4.66667 15.3333,-14.6667 16,-30 15.3333,-36.6667 10.6667,-39.3333 10,-48 2.66667,-48.6667 0.666667,-54 -6,-40.6667 -10.6667,-38.6667 -11.3333,-30 -14.6667,-26 -8,-16 -11.3333,-12.6667"/>
  </object>
  <object id="28" x="726" y="406.667">
   <properties>
    <property name="blocked" type="bool" value="true"/>
   </properties>
   <polygon points="0,0 17.3333,0.666667 30.6667,-4 22.6667,-9.33333 11.3333,-15.3333 -5.33333,-11.3333 -8,-6"/>
  </object>
  <object id="29" x="1068" y="377.333">
   <properties>
    <property name="blocked" type="bool" value="true"/>
   </properties>
   <polygon points="0,0 36,0 42,-4 45.3333,-13.3333 44,-20.6667 40,-23.3333 34.6667,-22.6667 34,-31.3333 42,-31.3333 45.3333,-31.3333 42.6667,-69.3333 2.66667,-72 -4.66667,-65.3333 -6.66667,-38 -3.33333,-31.3333 4.66667,-31.3333 6.66667,-18.6667 4,-23.3333 -2.66667,-24 -6.66667,-16.6667 -5.33333,-8"/>
  </object>
  <object id="30" x="911.333" y="248">
   <properties>
    <property name="blocked" type="bool" value="true"/>
   </properties>
   <polygon points="0,0 7.33333,-9.33333 14.6667,-18.6667 14,-28.6667 8.66667,-50.6667 -4.66667,-57.3333 -11.3333,-44 -13.3333,-28 -14,-14"/>
  </object>
  <object id="31" x="808.667" y="46.6667">
   <properties>
    <property name="blocked" type="bool" value="true"/>
   </properties>
   <polygon points="0,0 0,58 11.3333,60 11.3333,68.6667 14.6667,84 35.3333,92 56.6667,91.3333 68,92 78,102.667 89.3333,121.333 100.667,125.333 108,134 115.333,149.333 127.333,150 133.333,136.667 140.667,124 152.667,120 166,120.667 174,121.333 185.333,120.667 197.333,116 201.333,104.667 198.667,96 198,91.3333 196.667,88 194,84.6667 189.333,74 183.333,69.3333 182,69.3333 175.333,64.6667 170,58 164.667,49.3333 161.333,44 159.333,40 156,35.3333 150,32 145.333,32 142,28.6667 136,22.6667 134,20 132.667,14 132.667,11.3333 134,6 134,5.33333 127.333,2.66667 119.333,-6 118.667,-11.3333 110.667,-12.6667 106,-12.6667 102.667,-14.6667 96.6667,-22.6667 94.6667,-28.6667 92,-31.3333 87.3333,-35.3333 84.6667,-40 78.6667,-44 77.3333,-46 73.3333,-48.6667 38.6667,-46 34.6667,-40 20.6667,-30 9.33333,-24 6.66667,-16"/>
  </object>
  <object id="32" x="1098.67" y="262">
   <properties>
    <property name="blocked" type="bool" value="true"/>
   </properties>
   <polygon points="0,0 10,0.666667 14,1.33333 10.6667,-12 11.3333,-20 18.6667,-20.6667 27.3333,-28.6667 36,-33.3333 50,-36.6667 52,-41.3333 52,-114 44.6667,-120 41.3333,-128 39.3333,-134 38.6667,-145.333 34.6667,-155.333 26.6667,-160 18.6667,-164.667 8.66667,-153.333 -0.666667,-140.667 -18,-107.333 -26.6667,-75.3333 -28.6667,-54 -14.6667,-38 2,-29.3333 6.66667,-10.6667"/>
  </object>
  <object id="33" x="1008" y="79.3333">
   <properties>
    <property name="blocked" type="bool" value="true"/>
   </properties>
   <polygon points="0,0 24.6667,14.6667 48.6667,1.33333 56,8 74.6667,4 76,0.666667 92.6667,13.3333 122.667,0.666667 124.667,-0.666667 108,-14.6667 116,-16 127.333,-8.66667 136,-6 132.667,-17.3333 134,-26.6667 145.333,-32 142,-76.6667 114,-80 14,-81.3333 10.6667,-81.3333 12.6667,-18 20,-15.3333"/>
  </object>
  <object id="34" x="719.333" y="200.667">
   <properties>
    <property name="blocked" type="bool" value="true"/>
   </properties>
   <polygon points="0,0 3.33333,16.6667 6.66667,4.66667 14,0.666667 11.3333,-15.3333 1.33333,-27.3333 -8,-18.6667 -14.6667,-8 -14,1.33333"/>
  </object>
  <object id="35" x="391.333" y="490">
   <properties>
    <property name="blocked" type="bool" value="true"/>
   </properties>
   <polygon points="0,0 -2,-17.3333 -91.3333,-18 -96,-148.667 -155.333,-145.333 -157.333,-251.333 -156.667,-254 -127.333,-254 -126,-282.667 -124.667,-285.333 -28.6667,-285.333 -29.3333,-315.333 -8.66667,-316 -6.66667,-308 -5.33333,-302.667 -11.3333,-302.667 -12,-275.333 -11.3333,-271.333 -13.3333,-268 -109.333,-269.333 -109.333,-243.333 -106,-239.333 -104.667,-231.333 -108.667,-226 -118.667,-225.333 -117.333,-213.333 -140.667,-234 -140,-192 -140,-188.667 -79.3333,-188.667 -78,-69.3333 -76,-60.6667 13.3333,-59.3333 14,-4 13.3333,0"/>
  </object>
  <object id="36" x="341.333" y="632.667">
   <polygon points="0,0 0,1.33333 4,-2"/>
  </object>
  <object id="37" x="458" y="492.667">
   <properties>
    <property name="blocked" type="bool" value="true"/>
   </properties>
   <polygon points="0,0 12,2 13.3333,-21.3333 201.333,-18 205.333,-148.667 264,-146 267.333,-146 268,-255.333 235.333,-256 234.667,-288 139.333,-287.333 140,-320 -74,-320 -73.3333,-309.333 -72,-304.667 121.333,-303.333 122,-278.667 123.333,-272.667 218,-270.667 218.667,-238.667 249.333,-238 251.333,-192 188,-190 188,-63.3333 -0.666667,-62"/>
  </object>
  <object id="38" x="462.667" y="404.667">
   <properties>
    <property name="blocked" type="bool" value="true"/>
   </properties>
   <polygon points="0,0 28.6667,3.33333 32.6667,-7.33333 87.3333,4.66667 90.6667,4.66667 110,-3.33333 109.333,-22.6667 41.3333,-42.6667 33.3333,-37.3333 34,-64.6667 3.33333,-68 -1.33333,-52.6667"/>
  </object>
  <object id="39" x="362" y="247.333">
   <properties>
    <property name="blocked" type="bool" value="true"/>
   </properties>
   <polygon points="0,0 -4,7.33333 -4,28.6667 -0.666667,33.3333 41.3333,33.3333 46.6667,30 47.3333,18.6667 44.6667,16 45.3333,4 41.3333,-2 36.6667,-1.33333 32.6667,-2.66667 29.3333,-8.66667 34.6667,-12 34.6667,-20.6667 27.3333,-25.3333 25.3333,-30 30.6667,-35.3333 23.3333,-33.3333 24.6667,-26 19.3333,-26.6667 14,-29.3333 12.6667,-23.3333 10.6667,-20 8,-16.6667 13.3333,-11.3333 16,-6.66667 13.3333,-6 10.6667,-2.66667"/>
  </object>
  <object id="40" x="456" y="282.667">
   <properties>
    <property name="blocked" type="bool" value="true"/>
   </properties>
   <polygon points="0,0 50,2 50.6667,-33.3333 48,-35.3333 50,-39.3333 48,-64 44.6667,-72 4.66667,-72 0,-66 -2,-34.6667 -0.666667,-28.6667"/>
  </object>
  <object id="41" x="553.333" y="280.667">
   <properties>
    <property name="blocked" type="bool" value="true"/>
   </properties>
   <polygon points="0,0 42,1.33333 47.3333,-5.33333 48.6667,-18.6667 46,-20.6667 46,-28 46,-32 42,-34 38,-34 36.6667,-35.3333 33.3333,-36 32,-39.3333 30.6667,-42 34.6667,-44 35.3333,-50.6667 28,-60 21.3333,-60.6667 18.6667,-62 12.6667,-53.3333 8.66667,-49.3333 17.3333,-42.6667 15.3333,-38.6667 12.6667,-37.3333 7.33333,-36.6667 2,-34.6667 -1.33333,-34"/>
  </object>
  <object id="42" x="1148" y="3">
   <properties>
    <property name="blocked" type="bool" value="true"/>
   </properties>
   <polygon points="0,0 4,732 2,731"/>
  </object>
  <object id="43" x="1151" y="739">
   <properties>
    <property name="blocked" type="bool" value="true"/>
   </properties>
   <polygon points="0,0 -1151,-3 -1150,-7 0.75,-6.75"/>
  </object>
  <object id="44" x="0.25" y="735.688">
   <properties>
    <property name="blocked" type="bool" value="true"/>
   </properties>
   <polygon points="0,0 -0.1875,-735.563 0.25,-735.563 0.8125,0.125"/>
  </object>
  <object id="45" x="0.25" y="0.0625">
   <properties>
    <property name="blocked" type="bool" value="true"/>
   </properties>
   <polygon points="0,0 1151.75,0.0625 1151.75,0.5625 0,1.125"/>
  </object>
 </objectgroup>
</map>
